X: 1
T: Bill McEvoy's
M: 4/4
L: 1/8
R: reel
K: Gmix
d2cA dG~G2|DGBd gdBd|c2Bd cF~F2|CFAc fagf|
d2cA dG~G2|DGBd gdBd|cAAc fagf|dBcA BG~G2:|
K:G
|:~g3a bgaf|gbag fddf|ec~c2 gceg|fgag fdef|
~g3a bgaf|gbag fddf|ec~c2 gceg|fdcA BG~G2:|
